X: 8928
T: Currachman, The
R: jig
M: 6/8
K: Edorian
|:Eed B2B|Bed BGE|Eed Bcd|cAc dBB|
Bed B2B|Bed BGE|Eed Bcd|cAF DFE:|
|:EGB GBd|Bdf dfa|Bgf e2d|cAc dBB|
EGB GBd|Bdf dfa|Bgf e2d|cAc dBB:|
ebg ebg|ebg efg|fdf a2g|f/g/ag fga|
ebg ebg|ebg efg|fdc Bcd|eee e2d|
ebg ebg|ebg efg|fdf a2g|f/g/ag fga|
ebg ebg|ebg efg|fdf agf|(e3 e)ga||
b2g agf|f/g/ag Bfg|fdf a2g|f/g/ag fga|
b2g agf|f/g/af efg|fdc Bcd|eee ega|
b2g agf|f/g/ag Bfg|fdf a2g|f/g/ag fga|
bgb afa|gag efg|fdf agf|eee efg||
fdB B2f|gfe efg|fdB BBf|eee efg|
fdB B2f|gfe efg|fdf agf|e3 BAG|E6||

